X: 13
T: Chatsworth
%%VWML:Thompsons1765-2277d-p7-0
F:http://www.vwml.org/record/Thompsons1765/2277d/p7
B: Chas & Sam Thompson "Twenty Four Country Dances for the Year 1765", London 1765, p.7 #1 
F: http://www.vwml.org/browse/browse-collections-dance-tune-books/browse-thompsons1765#
Z: 2014 John Chambers <jc:trillian.mit.edu> (added dance description)
M: 6/8
L: 1/8
K: G
|:\
G3 dBd | gbg faf | cec BdB | AcA FED |\
G3 dBd | gbg faf | dgd cec | BdB G3 :|
|:\
d3 gbg | (f/g/a)f ege | (c/d/e)c BdB | (e/f/g)e def |\
g3 gbg | (f/g/a)f ege | (c/d/e)c B/c/dB | (f/g/a)f g2G :|
% - - - - - - - - - - Dance description - - - - - - - - - -
%%begintext align
%% Foot it four turn Right hands across .|. Foot it four
%% left hands back again :|. Cast off and lead thro the 3d
%% Cu: and cast up .|: Right and left at top :|:
%%endtext
T: Lasses have at ye
%R: jig
B: Chas & Sam Thompson "Twenty Four Country Dances for the Year 1765", London 1765, p.7 #2 
F: http://www.vwml.org/browse/browse-collections-dance-tune-books/browse-thompsons1765#
Z: 2014 John Chambers <jc:trillian.mit.edu> (added dance description)
N: The 'h' in "both" is printed as ":h" above the 't'.
M: 6/8
L: 1/8
K: G
|:\
GBB dBB | GBB g2B | FAA dAA | FAA f2A | GBB dBd | gdg bgb | afd (e/f/g)B | Agf g3 :| |:\
(f/g/a)f (f/g/a)d | (f/g/a) a2d | bag fdf | eA^c d2B | cee caa | Bdd Bgg | bgd (e/f/g)B | Agf g3 :|
% - - - - - - - - - - Dance description - - - - - - - - - - 
%%begintext align
%% Foot it Hands 3 with the 2d Wo: .|. the same with
%% the 2d Man :|. Cast off and lead thro' the 3d Cu: and 
%% Cast up .|: lead thro' the top Cu: and cast off :|: right 
%% hands across at bottom .|. left at top :||. lead out on both
 %% sides .||: :||:
%%endtext
